icon-svg/fanduel.svg

<svg xmlns="http://www.w3.org/2000/svg" viewBox="0 0 24 24"><path fill="#44739e" d="M12.89 5.64a.184.184 0 0 1-.166-.238 23 23 0 0 1 1.292-3.065.264.264 0 0 1 .288-.144 19.95 19.95 0 0 1 7.499 2.415.36.36 0 0 1 .195.363 20.1 20.1 0 0 1-8.721 16.365.185.185 0 0 1-.283-.086 24 24 0 0 1-.946-3.181.29.29 0 0 1 .107-.328 16.5 16.5 0 0 0 6.152-10.875 16.5 16.5 0 0 0-5.422-1.226ZM6.301 9.697A13.6 13.6 0 0 1 10.4 8.545c.149-.023.212.081.194.2a26 26 0 0 0-.337 3.209.23.23 0 0 1-.216.228 10.3 10.3 0 0 0-2.329.759 16.6 16.6 0 0 0 2.617 3.442.76.76 0 0 1 .211.44 25 25 0 0 0 1.3 4.883.17.17 0 0 1-.013.2.19.19 0 0 1-.225 0 20.1 20.1 0 0 1-9.6-16.935.38.38 0 0 1 .193-.367 20.16 20.16 0 0 1 10.283-2.541.177.177 0 0 1 .151.274 22 22 0 0 0-1.224 3.099.24.24 0 0 1-.247.189 16.6 16.6 0 0 0-5.467 1.236 17 17 0 0 0 .61 2.832v.01Z"/></svg>

<?xml version="1.0" encoding="UTF-8"?>
<svg width="24px" fill="#44739e" height="24px" viewBox="0 0 24 24" version="1.1" xmlns="http://www.w3.org/2000/svg" xmlns:xlink="http://www.w3.org/1999/xlink">
            <path d="M 12.891,5.636 A 0.184,0.184 0 0 1 12.725,5.398 23.106,23.106 0 0 1 14.017,2.332 0.264,0.264 0 0 1 14.305,2.188 19.949,19.949 0 0 1 21.805,4.604 0.362,0.362 0 0 1 22,4.967 20.1,20.1 0 0 1 13.278,21.335 0.185,0.185 0 0 1 12.995,21.249 24.108,24.108 0 0 1 12.048,18.067 0.292,0.292 0 0 1 12.155,17.739 16.485,16.485 0 0 0 18.309,6.862 16.474,16.474 0 0 0 12.886,5.636 Z M 6.3,9.694 a 13.567,13.567 0 0 1 4.1,-1.153 c 0.149,-0.023 0.212,0.081 0.194,0.2 a 26.114,26.114 0 0 0 -0.337,3.21 0.232,0.232 0 0 1 -0.216,0.228 10.329,10.329 0 0 0 -2.329,0.759 16.6,16.6 0 0 0 2.617,3.443 0.761,0.761 0 0 1 0.211,0.44 24.846,24.846 0 0 0 1.3,4.884 0.172,0.172 0 0 1 -0.013,0.2 0.187,0.187 0 0 1 -0.225,0 A 20.112,20.112 0 0 1 2,4.967 0.379,0.379 0 0 1 2.193,4.6 20.162,20.162 0 0 1 12.478,2.058 0.177,0.177 0 0 1 12.63,2.332 22.338,22.338 0 0 0 11.405,5.432 0.24,0.24 0 0 1 11.158,5.621 16.574,16.574 0 0 0 5.69,6.857 16.914,16.914 0 0 0 6.3,9.69 V 9.7 Z"/>

</svg>
